X: 7042
T: Chinese, The
R: hornpipe
M: 4/4
K: Edorian
|:D|E2EF EFAB|~e3f e2ef|d3e d3A|~B3E DEED|
E2EF EFAB|~d3e d3A|BdAd (3Bcd FD|E2ED E3:|
|:f|e2ef a3f|efef d3f|e2ef afed|BAEB E3:|

